X:1
T:[ID 3-43a]
T:[ID 3-43a]
T:Bezeichnung standardisiert: Polonaise Polonoise 26.
T:Urheber unbekannt Datum in der hier transkribierten schriftlichen Quelle: 1767
C:Urheber unbekannt
C:Datum in der hier transkribierten schriftlichen Quelle: 1767
%%score 1 2
L:1/8
M:3/4
K:G
V:1 treble nm="Primo"
V:2 treble 
V:1
"^O)" gf/e/ dedc | BB/G/ cc/A/ d2 |"^O)" gf/e/ dedc | BB/G/ cc/A/ d2 | ec/e/ ge/g/ c'2 | %5
 dB/d/ gd/g/ b2 | cA/c/ fd/f/ ac | B/A/G/F/ G2 G2 :: d/c/B/A/ Gbgd | ee/d/ ee/d/ e2 | %10
 e/d/^c/B/ A^c'ae | ff/e/ ff/e/ Tf2 | gf/e/ dedc | BB/G/ cc/A/ d2 | gf/e/ dfac' | ba/g/"^1)" g4 :| %16
V:2
"^O)" !fermata!B2 BcBA | GG/B/ AA/c/ B2 |"^O)" B2 BcBA | GG/B/ AA/c/ B2 | cceeee | BBdddd | %6
 AF/A/ dB/d/ fA | d/c/B/A/ B4 :: d/c/B/A/ Gg dB |"^2)" cc/B/ cc/B/ Tc2 | e/d/^c/B/ Aaec | %11
 dd/^c/ dd/c/ d2 | B2 BcBA | GG/B/ AA/c/ B2 | Bc d/f/a gG | A/c/c/A/ B2 G2 :| %16

